X:1
T:Love Letters
T:Love Letters
C:Victor Young
Z:All Rights Reserved
L:1/4
M:4/4
K:G
V:1 treble nm="Voice"
%%MIDI program 52
V:1
 z"Gmaj7" D D D |"G6" D2 D D |"Em6" E4- | E4 |"Am7" z E F G |"D7b9" A2 G F |"Gmaj7" B4- |"Em" B4 | %8
w: Love let- ters|straight from the|heart||Keep us so|near while a-|part.||
"C#m7b5" z B B B |"F#" ^A2 B ^c |"Bm7" d4- |"Dm7""E7b9" d4 |"Am6" z A A A |"E7b9" ^G2"E7/A" A B | %14
w: I'm not a-|lone in the|night||When I can|have all the|
"Am7" c3 E |"Cm6/D""D7b9" c4 |"Gmaj7" z D D D |"G6" D2 D D |"Em6" E4- | E4 |"Am7" z E F G | %21
w: love you|write.|I mem- o-|rize ev- ry|line.||I kiss the|
"D7b9" A2 G F |"G""^Gaug" B4- |"Dm7""G7" B4 |"Cmaj7" z B A B |"Cm6" d c B A | %26
w: name that you|sign.||And, Dar- ling|then I read a-|
"Gsus4" c"G" B"Esus4" A"Em" G |"F#6/A#" F4 |"Am7" z E E E |"F7" c2 A"D7" B |"Ebmaj7""Abmaj7" G4- | %31
w: gain right from the|start.|Love Let- ters|straight from your|heart.|
"Gmaj7" G3 z |] %32
w: |

